X:1
T: Tatter the Road
C:
R:Jig
Q:180
K:G
M:6/8
L:1/16
d2|:c2A2G2 F4D2|G4G2 G6|A2B2A2 A4G2|F4G2 A4d2|
c2A2G2 F2E2D2|G4G2 G6|A2B2A2 B4G2|1A2F2D2 D4d2:|2A2F2D2 D4de|
|:f4d2 d4e2|f4d2 c2B2A2|B4G2 A2B2c2|B4G2 A2F2D2|
f4d2 e2f2g2|f4d2 c2B2A2|B4G2 c2A2F2|1G6 G4de:|2G6 G4||
